X:1
T:St. Helen’s, 85.83
T:St. Helen’s, 85.83
T:Robert Prescott Stewart (1825-1894)
T:Public Domain Courtesy of the Cyber Hymnal™
C:Robert Prescott Stewart (1825-1894)
Z:Public Domain
Z:Courtesy of the Cyber Hymnal™
%%score ( 1 2 ) ( 3 4 )
L:1/8
Q:1/4=108
M:4/4
K:E
V:1 treble 
V:2 treble 
V:3 bass 
V:4 bass 
V:1
 [EG]2 [EF]2 | [EA]2 [EG]2 [Gc]2 [GB]2 | [EB]2 [EA]2 [CG]2 [CF]2 | [B,E]4 [DF]4 | %4
 [EG]4 [EG]2 [EG]2 | [EF]2 [Ge]2 [Fd]2 [Ec]2 | [DB]4 E4 | F6 z2 G2 | E4 |] %9
V:2
 x4 | x8 | x8 | x8 | x8 | x8 | x4 E4 | E4 D4 x2 | E4 |] %9
V:3
 [E,B,]2 [E,A,]2 | [E,C]2 [E,B,]2 [E,E]2 [E,=D]2 | [A,C]2 [A,C]2 [A,,A,]2 [A,,A,]2 | %3
 [B,,G,]4 [B,,B,]4 | [E,B,]4 [C,B,]2 [C,B,]2 | [F,^A,]2 [F,A,]2 [F,A,]2 [F,A,]2 | %6
 (B,2 A,2) [C,G,]4 | [A,,C]4 (B,2 A,2) x2 | [E,G,]4 |] %9
V:4
 x4 | x8 | x8 | x8 | x8 | x8 | B,,4 x4 | x4 B,,4 x2 | x4 |] %9

